images/about/about-playstation.svg

<svg height="150" viewBox="0 0 250 150" width="250" xmlns="http://www.w3.org/2000/svg"><path d="m192.391314 114.668569c-3.791863 4.783921-13.081922 8.196598-13.081922 8.196598s-69.108912 24.82347-69.108912 24.82347v-18.306755s50.859461-18.121578 50.859461-18.121578c5.771569-2.067882 6.657804-4.991147 1.966481-6.525529-4.68251-1.538795-13.161285-1.097873-18.937265.978833 0 0-33.888677 11.935549-33.888677 11.935549v-18.9990001s1.953255-.6613726 1.953255-.6613726 9.792706-3.4655843 23.562461-4.991147c13.769755-1.5167461 30.630304.2072294 43.866559 5.2248333 14.916127 4.7133724 16.59601 11.6621864 12.808559 16.4460984zm-75.612383-31.1726347v-46.8162755c0-5.498199-1.014107-10.5598951-6.172804-11.9928676-3.950588-1.2654255-6.402078 2.4029804-6.402078 7.8967706v117.2391052s-31.6179549-10.035206-31.6179549-10.035206v-139.787461c13.4434736 2.49557843 33.0288769 8.3950098 43.5579159 11.9443725 26.776725 9.1930559 35.855147 20.6347863 35.855147 46.4150422 0 25.127702-15.511363 34.651449-35.220226 25.1365196zm-102.2083388 43.9723797c-15.31295229-4.312138-17.86143669-13.297971-10.88176404-18.474304 6.45057674-4.77951 17.42052284-8.377373 17.42052284-8.377373s45.334802-16.1198272 45.334802-16.1198272v18.3773082s-32.6232442 11.675411-32.6232442 11.675411c-5.762749 2.067883-6.6489872 4.995559-1.9664774 6.529942 4.6869186 1.534372 13.1701098 1.097872 18.9416774-.974422 0 0 15.6480442-5.67898 15.6480442-5.67898v16.441696c-.992052.176362-2.0987491.352725-3.1216706.524686-15.6524559 2.557304-32.3234245 1.490294-48.7518902-3.924137z" fill="#0070d1" fill-rule="evenodd" transform="translate(28)"/></svg>

<?xml version="1.0" encoding="UTF-8"?>
<svg width="250px" height="150px" viewBox="0 0 250 150" version="1.1" xmlns="http://www.w3.org/2000/svg" xmlns:xlink="http://www.w3.org/1999/xlink">
    <title>about-playstation</title>
    <g id="about-playstation" stroke="none" stroke-width="1" fill="none" fill-rule="evenodd">
        <g id="PlayStation_logo" transform="translate(28.000000, 0.000000)" fill="#0070D1">
            <path d="M192.391314,114.668569 C188.599451,119.45249 179.309392,122.865167 179.309392,122.865167 C179.309392,122.865167 110.20048,147.688637 110.20048,147.688637 C110.20048,147.688637 110.20048,129.381882 110.20048,129.381882 C110.20048,129.381882 161.059941,111.260304 161.059941,111.260304 C166.83151,109.192422 167.717745,106.269157 163.026422,104.734775 C158.343912,103.19598 149.865137,103.636902 144.089157,105.713608 C144.089157,105.713608 110.20048,117.649157 110.20048,117.649157 C110.20048,117.649157 110.20048,98.6501569 110.20048,98.6501569 C110.20048,98.6501569 112.153735,97.9887843 112.153735,97.9887843 C112.153735,97.9887843 121.946441,94.5232 135.716196,92.9976373 C149.485951,91.4808912 166.3465,93.2048667 179.582755,98.2224706 C194.498882,102.935843 196.178765,109.884657 192.391314,114.668569 Z M116.778931,83.4959343 C116.778931,83.4959343 116.778931,36.6796588 116.778931,36.6796588 C116.778931,31.1814598 115.764824,26.1197637 110.606127,24.6867912 C106.655539,23.4213657 104.204049,27.0897716 104.204049,32.5835618 C104.204049,32.5835618 104.204049,149.822667 104.204049,149.822667 C104.204049,149.822667 72.5860941,139.787461 72.5860941,139.787461 C72.5860941,139.787461 72.5860941,0 72.5860941,0 C86.0295677,2.49557843 105.614971,8.3950098 116.14401,11.9443725 C142.920735,21.1374284 151.999157,32.5791588 151.999157,58.3594147 C151.999157,83.4871167 136.487794,93.0108637 116.778931,83.4959343 L116.778931,83.4959343 Z M14.5705922,127.468314 C-0.742360087,123.156176 -3.29084449,114.170343 3.68882816,108.99401 C10.1394049,104.2145 21.109351,100.616637 21.109351,100.616637 C21.109351,100.616637 66.444153,84.4968098 66.444153,84.4968098 C66.444153,84.4968098 66.444153,102.874118 66.444153,102.874118 C66.444153,102.874118 33.8209088,114.549529 33.8209088,114.549529 C28.0581598,116.617412 27.1719216,119.545088 31.8544314,121.079471 C36.54135,122.613843 45.0245412,122.177343 50.7961088,120.105049 C50.7961088,120.105049 66.444153,114.426069 66.444153,114.426069 C66.444153,114.426069 66.444153,130.867765 66.444153,130.867765 C65.452101,131.044127 64.3454039,131.22049 63.3224824,131.392451 C47.6700265,133.949755 30.9990579,132.882745 14.5705922,127.468314 L14.5705922,127.468314 Z" id="path-1"></path>
        </g>
    </g>
</svg>
